**harm	**harte	**timestamp	**phrase	**leadinstrument	**kern
*M4/4	*M4/4	*	*	*	*
*B-:	*B-:	*	*	*	*B-:
1r;	N	0	.	r	1r;
1r;	N	0.488	.	r	1r;
=1	=1	=1	=1	=1	=1
*>A_intro	*>A_intro	*>A_intro	*>A_intro	*>A_intro	*>A_intro
1ii7	C:min7	19.04	newline	synth	1C 1e- 1g 1b-
=2	=2	=2	=2	=2	=2
1I	B-:maj	20.926	.	synth	1B- 1dd 1ff
=3	=3	=3	=3	=3	=3
1ii7	C:min7	22.812	.	synth	1C 1e- 1g 1b-
=4	=4	=4	=4	=4	=4
1I	B-:maj	24.699	.	synth	1B- 1dd 1ff
=5	=5	=5	=5	=5	=5
*>B_verse	*>B_verse	*>B_verse	*>B_verse	*>B_verse	*>B_verse
1I	B-:maj	26.585	newline	voice	1B- 1dd 1ff
=6	=6	=6	=6	=6	=6
1Im7	B-:7	28.462	.	voice	1B- 1dd 1ff 1aa
=7	=7	=7	=7	=7	=7
1I	B-:maj	30.339	.	voice	1B- 1dd 1ff
=8	=8	=8	=8	=8	=8
1Im7	B-:7	32.215	.	voice	1B- 1dd 1ff 1aa
=9	=9	=9	=9	=9	=9
1I	B-:maj	34.092	newline	voice	1B- 1dd 1ff
=10	=10	=10	=10	=10	=10
1Im7	B-:7	35.956	.	voice	1B- 1dd 1ff 1aa
=11	=11	=11	=11	=11	=11
1IV	E-:maj	37.82	.	voice	1E- 1g 1b-
=12	=12	=12	=12	=12	=12
1IV	E-:maj	39.684	.	voice	1E- 1g 1b-
=13	=13	=13	=13	=13	=13
1vi	G:min	41.549	newline	voice	1G 1b- 1dd
=14	=14	=14	=14	=14	=14
1vi	G:min	43.414	.	voice	1G 1b- 1dd
=15	=15	=15	=15	=15	=15
1V	F:maj	45.279	.	voice	1F 1a 1cc
=16	=16	=16	=16	=16	=16
1V	F:maj	47.144	.	voice	1F 1a 1cc
=17	=17	=17	=17	=17	=17
1-VII	A-:maj(9)	49.009	newline	voice	1A- 1cc 1ee-
=18	=18	=18	=18	=18	=18
1-VII	A-:maj(9)	50.883	.	voice	1A- 1cc 1ee-
=19	=19	=19	=19	=19	=19
1-VII	A-:maj(9)	52.757	.	voice	1A- 1cc 1ee-
=20	=20	=20	=20	=20	=20
1-VII	A-:maj(9)	54.631	.	voice	1A- 1cc 1ee-
=21	=21	=21	=21	=21	=21
*>B_verse	*>B_verse	*>B_verse	*>B_verse	*>B_verse	*>B_verse
1I	B-:maj	56.504	newline	voice	1B- 1dd 1ff
=22	=22	=22	=22	=22	=22
1Im7	B-:7	58.371	.	voice	1B- 1dd 1ff 1aa
=23	=23	=23	=23	=23	=23
1I	B-:maj	60.239	.	voice	1B- 1dd 1ff
=24	=24	=24	=24	=24	=24
1Im7	B-:7	62.106	.	voice	1B- 1dd 1ff 1aa
=25	=25	=25	=25	=25	=25
1I	B-:maj	63.973	newline	voice	1B- 1dd 1ff
=26	=26	=26	=26	=26	=26
1Im7	B-:7	65.84	.	voice	1B- 1dd 1ff 1aa
=27	=27	=27	=27	=27	=27
1IV	E-:maj	67.708	.	voice	1E- 1g 1b-
=28	=28	=28	=28	=28	=28
1IV	E-:maj	69.575	.	voice	1E- 1g 1b-
=29	=29	=29	=29	=29	=29
1vi	G:min	71.442	newline	voice	1G 1b- 1dd
=30	=30	=30	=30	=30	=30
1vi	G:min	73.312	.	voice	1G 1b- 1dd
=31	=31	=31	=31	=31	=31
1V	F:maj	75.182	.	voice	1F 1a 1cc
=32	=32	=32	=32	=32	=32
1V	F:maj	77.052	.	voice	1F 1a 1cc
=33	=33	=33	=33	=33	=33
1-VII	A-:maj(9)	78.922	newline	voice	1A- 1cc 1ee-
=34	=34	=34	=34	=34	=34
1-VII	A-:maj(9)	80.791	.	voice	1A- 1cc 1ee-
=35	=35	=35	=35	=35	=35
1-VII	A-:maj(9)	82.66	.	voice	1A- 1cc 1ee-
=36	=36	=36	=36	=36	=36
1-VII	A-:maj(9)	84.529	.	voice	1A- 1cc 1ee-
=37	=37	=37	=37	=37	=37
*>B2_chorus	*>B2_chorus	*>B2_chorus	*>B2_chorus	*>B2_chorus	*>B2_chorus
1I	B-:maj	86.398	newline	voice	1B- 1dd 1ff
=38	=38	=38	=38	=38	=38
1I	B-:maj	88.262	.	voice	1B- 1dd 1ff
=39	=39	=39	=39	=39	=39
1I	B-:maj	90.126	.	voice	1B- 1dd 1ff
=40	=40	=40	=40	=40	=40
1I	B-:maj	91.99	.	voice	1B- 1dd 1ff
=41	=41	=41	=41	=41	=41
1IV	E-:maj	93.854	newline	voice	1E- 1g 1b-
=42	=42	=42	=42	=42	=42
1IV	E-:maj	95.721	.	voice	1E- 1g 1b-
=43	=43	=43	=43	=43	=43
1IV	E-:maj	97.588	.	voice	1E- 1g 1b-
=44	=44	=44	=44	=44	=44
1IV	E-:maj	99.456	.	voice	1E- 1g 1b-
=45	=45	=45	=45	=45	=45
1vi	G:min	101.323	newline	voice	1G 1b- 1dd
=46	=46	=46	=46	=46	=46
1vi	G:min	103.194	.	voice	1G 1b- 1dd
=47	=47	=47	=47	=47	=47
1V	F:maj	105.066	.	voice	1F 1a 1cc
=48	=48	=48	=48	=48	=48
1V	F:maj	106.938	.	voice	1F 1a 1cc
=49	=49	=49	=49	=49	=49
1-VII	A-:maj	108.809	newline	voice	1A- 1cc 1ee-
=50	=50	=50	=50	=50	=50
1-VII	A-:maj	110.671	.	voice	1A- 1cc 1ee-
=51	=51	=51	=51	=51	=51
1-VII	A-:maj	112.532	.	voice	1A- 1cc 1ee-
=52	=52	=52	=52	=52	=52
1-VII	A-:maj	114.393	.	voice	1A- 1cc 1ee-
=53	=53	=53	=53	=53	=53
*>C_interlude	*>C_interlude	*>C_interlude	*>C_interlude	*>C_interlude	*>C_interlude
1-VI	G-:maj	116.254	newline	synth	1G- 1b- 1dd-
=54	=54	=54	=54	=54	=54
1-VI	G-:maj	118.121	.	synth	1G- 1b- 1dd-
=55	=55	=55	=55	=55	=55
1-III	D-:maj6	119.987	.	synth	1D- 1f 1a-
=56	=56	=56	=56	=56	=56
1-III	D-:maj6	121.854	.	synth	1D- 1f 1a-
=57	=57	=57	=57	=57	=57
1-VI	G-:maj	123.72	newline	synth	1G- 1b- 1dd-
=58	=58	=58	=58	=58	=58
1-VI	G-:maj	125.585	.	synth	1G- 1b- 1dd-
=59	=59	=59	=59	=59	=59
1-III	D-:maj6	127.45	.	synth	1D- 1f 1a-
=60	=60	=60	=60	=60	=60
1Im7	B-:7(#9)	129.315	.	synth	1B- 1dd 1ff 1aa
=61	=61	=61	=61	=61	=61
1Im7	B-:7(#9)	131.179	.	synth	1B- 1dd 1ff 1aa
=62	=62	=62	=62	=62	=62
*>D_bridge	*>D_bridge	*>D_bridge	*>D_bridge	*>D_bridge	*>D_bridge
1ivm7	E-:min7	133.044	newline	voice	1E- 1g- 1b- 1dd
=63	=63	=63	=63	=63	=63
1-VIIm7	A-:7	134.915	.	voice	1A- 1cc 1ee- 1gg
=64	=64	=64	=64	=64	=64
1v7	F:min7	136.787	.	voice	1F 1a- 1cc 1ee-
=65	=65	=65	=65	=65	=65
1im7	B-:min7	138.658	.	voice	1B- 1dd- 1ff 1aa
=66	=66	=66	=66	=66	=66
1ivm7	E-:min7	140.529	newline	voice	1E- 1g- 1b- 1dd
=67	=67	=67	=67	=67	=67
1ivm7	E-:min7	142.394	.	voice	1E- 1g- 1b- 1dd
=68	=68	=68	=68	=68	=68
1-VII	A-:sus4(b7)	144.26	.	voice	1A- 1cc 1ee-
=69	=69	=69	=69	=69	=69
1-VII	A-:sus4(b7)	146.125	.	voice	1A- 1cc 1ee-
=70	=70	=70	=70	=70	=70
*>B_verse	*>B_verse	*>B_verse	*>B_verse	*>B_verse	*>B_verse
1I	B-:maj	147.99	newline	voice	1B- 1dd 1ff
=71	=71	=71	=71	=71	=71
1Im7	B-:7	149.856	.	voice	1B- 1dd 1ff 1aa
=72	=72	=72	=72	=72	=72
1I	B-:maj	151.722	.	voice	1B- 1dd 1ff
=73	=73	=73	=73	=73	=73
1Im7	B-:7	153.587	.	voice	1B- 1dd 1ff 1aa
=74	=74	=74	=74	=74	=74
1I	B-:maj	155.453	newline	voice	1B- 1dd 1ff
=75	=75	=75	=75	=75	=75
1Im7	B-:7	157.319	.	voice	1B- 1dd 1ff 1aa
=76	=76	=76	=76	=76	=76
1IV	E-:maj	159.185	.	voice	1E- 1g 1b-
=77	=77	=77	=77	=77	=77
1IV	E-:maj	161.051	.	voice	1E- 1g 1b-
=78	=78	=78	=78	=78	=78
1vi	G:min	162.917	newline	voice	1G 1b- 1dd
=79	=79	=79	=79	=79	=79
1vi	G:min	164.785	.	voice	1G 1b- 1dd
=80	=80	=80	=80	=80	=80
1V	F:maj	166.652	.	voice	1F 1a 1cc
=81	=81	=81	=81	=81	=81
1V	F:maj	168.519	.	voice	1F 1a 1cc
=82	=82	=82	=82	=82	=82
1-VII	A-:maj(9)	170.387	newline	voice	1A- 1cc 1ee-
=83	=83	=83	=83	=83	=83
1-VII	A-:maj(9)	172.258	.	voice	1A- 1cc 1ee-
=84	=84	=84	=84	=84	=84
1-VII	A-:maj(9)	174.129	.	voice	1A- 1cc 1ee-
=85	=85	=85	=85	=85	=85
1-VII	A-:maj(9)	176	.	voice	1A- 1cc 1ee-
=86	=86	=86	=86	=86	=86
*>B2_chorus	*>B2_chorus	*>B2_chorus	*>B2_chorus	*>B2_chorus	*>B2_chorus
1I	B-:maj	177.871	newline	voice	1B- 1dd 1ff
=87	=87	=87	=87	=87	=87
1I	B-:maj	179.739	.	voice	1B- 1dd 1ff
=88	=88	=88	=88	=88	=88
1I	B-:maj	181.607	.	voice	1B- 1dd 1ff
=89	=89	=89	=89	=89	=89
1I	B-:maj	183.475	.	voice	1B- 1dd 1ff
=90	=90	=90	=90	=90	=90
1IV	E-:maj	185.343	newline	voice	1E- 1g 1b-
=91	=91	=91	=91	=91	=91
1IV	E-:maj	187.195	.	voice	1E- 1g 1b-
=92	=92	=92	=92	=92	=92
1IV	E-:maj	189.047	.	voice	1E- 1g 1b-
=93	=93	=93	=93	=93	=93
1IV	E-:maj	190.898	.	voice	1E- 1g 1b-
=94	=94	=94	=94	=94	=94
1vi	G:min	192.75	newline	voice	1G 1b- 1dd
=95	=95	=95	=95	=95	=95
1vi	G:min	194.625	.	voice	1G 1b- 1dd
=96	=96	=96	=96	=96	=96
1V	F:maj	196.501	.	voice	1F 1a 1cc
=97	=97	=97	=97	=97	=97
1V	F:maj	198.376	.	voice	1F 1a 1cc
=98	=98	=98	=98	=98	=98
1-VII	A-:maj(9)	200.251	newline	voice	1A- 1cc 1ee-
=99	=99	=99	=99	=99	=99
1-VII	A-:maj(9)	202.118	.	voice	1A- 1cc 1ee-
=100	=100	=100	=100	=100	=100
1-VII	A-:maj(9)	203.985	.	voice	1A- 1cc 1ee-
=101	=101	=101	=101	=101	=101
1-VII	A-:maj(9)	205.853	.	voice	1A- 1cc 1ee-
=102	=102	=102	=102	=102	=102
*>C2_interlude	*>C2_interlude	*>C2_interlude	*>C2_interlude	*>C2_interlude	*>C2_interlude
1-VI	G-:maj	207.72	newline	synth	1G- 1b- 1dd-
=103	=103	=103	=103	=103	=103
1-VI	G-:maj	209.588	.	synth	1G- 1b- 1dd-
=104	=104	=104	=104	=104	=104
1-III	D-:maj6	211.456	.	synth	1D- 1f 1a-
=105	=105	=105	=105	=105	=105
1Im7	B-:7(#9)	213.325	.	synth	1B- 1dd 1ff 1aa
=106	=106	=106	=106	=106	=106
1Im7	B-:7(#9)	215.193	.	synth	1B- 1dd 1ff 1aa
=107	=107	=107	=107	=107	=107
*>D_bridge	*>D_bridge	*>D_bridge	*>D_bridge	*>D_bridge	*>D_bridge
1ivm7	E-:min7	217.061	newline	synth	1E- 1g- 1b- 1dd
=108	=108	=108	=108	=108	=108
1-VIIm7	A-:7	218.924	.	synth	1A- 1cc 1ee- 1gg
=109	=109	=109	=109	=109	=109
1v7	F:min7	220.787	.	synth	1F 1a- 1cc 1ee-
=110	=110	=110	=110	=110	=110
1im7	B-:min7	222.65	.	synth	1B- 1dd- 1ff 1aa
=111	=111	=111	=111	=111	=111
1ivm7	E-:min7	224.513	newline	voice	1E- 1g- 1b- 1dd
=112	=112	=112	=112	=112	=112
1ivm7	E-:min7	226.377	.	voice	1E- 1g- 1b- 1dd
=113	=113	=113	=113	=113	=113
1-VII	A-:sus4(b7)	228.241	.	voice	1A- 1cc 1ee-
=114	=114	=114	=114	=114	=114
1-VII	A-:sus4(b7)	230.105	.	voice	1A- 1cc 1ee-
=115	=115	=115	=115	=115	=115
*>E_outro	*>E_outro	*>E_outro	*>E_outro	*>E_outro	*>E_outro
*C-:	*C-:	*	*	*	*C-:
1I	C-:maj(9)	231.969	newline	voice	1C- 1e- 1g-
=116	=116	=116	=116	=116	=116
1I	C-:maj(9)	233.84	.	voice	1C- 1e- 1g-
=117	=117	=117	=117	=117	=117
1I	C-:maj(9)	235.71	.	voice	1C- 1e- 1g-
=118	=118	=118	=118	=118	=118
1I	C-:maj(9)	237.581	.	voice	1C- 1e- 1g-
=119	=119	=119	=119	=119	=119
1I	C-:maj(9)	239.452	newline	voice	1C- 1e- 1g-
=120	=120	=120	=120	=120	=120
1I	C-:maj(9)	241.321	.	voice	1C- 1e- 1g-
=121	=121	=121	=121	=121	=121
1I	C-:maj(9)	243.191	.	voice	1C- 1e- 1g-
=122	=122	=122	=122	=122	=122
1I	C-:maj(9)	245.061	.	voice	1C- 1e- 1g-
=123	=123	=123	=123	=123	=123
*>_fadeout	*>_fadeout	*>_fadeout	*>_fadeout	*>_fadeout	*>_fadeout
1I	C-:maj(9)	246.93	newline	voice	1C- 1e- 1g-
=124	=124	=124	=124	=124	=124
1I	C-:maj(9)	248.802	.	voice	1C- 1e- 1g-
=125	=125	=125	=125	=125	=125
1I	C-:maj(9)	250.673	.	voice	1C- 1e- 1g-
=126	=126	=126	=126	=126	=126
1I	C-:maj(9)	252.544	.	voice	1C- 1e- 1g-
=127	=127	=127	=127	=127	=127
1I	C-:maj(9)	254.415	newline	voice	1C- 1e- 1g-
=128	=128	=128	=128	=128	=128
1I	C-:maj(9)	256.279	.	voice	1C- 1e- 1g-
=129	=129	=129	=129	=129	=129
1I	C-:maj(9)	258.143	.	voice	1C- 1e- 1g-
=130	=130	=130	=130	=130	=130
1I	C-:maj(9)	260.007	.	voice	1C- 1e- 1g-
=131	=131	=131	=131	=131	=131
1I	C-:maj(9)	261.871	newline	voice	1C- 1e- 1g-
=132	=132	=132	=132	=132	=132
1I	C-:maj(9)	263.56	.	voice	1C- 1e- 1g-
=133	=133	=133	=133	=133	=133
1I	C-:maj(9)	265.248	.	voice	1C- 1e- 1g-
=134	=134	=134	=134	=134	=134
1I	C-:maj(9)	266.936	.	voice	1C- 1e- 1g-
1r;	N	268.624	.	r	1r;
1r;	N	272.539	.	r	1r;
*-	*-	*-	*-	*-	*-
!!!OTL: Where The Streets Have No Name
!!!COC: Pet Shop Boys
!!!BillboardChartDate: 1991/06/08, 1991/06/29
!!!BillboardPeak: 72, 72
!!!BillboardWeeksOnChart: 7, 7
!!!SampleTargetRank: 76, 84
!!!SampleActualRank: 76, 83
!!!SampleID#: 382, 1300
!!!RDF**harmony: **recip + pitch class of root + harmonic quality
!!!RDF**harte: Chris Harte's syntax, used by MIREX
!!!RDF**phrase: newline = linebreak in original McGill transcription
!!!RDF**timestamp: McGill audio timestamp in seconds
!!!RDF**leadinstrument: original McGill primary instrumentation annotation
!!!RDT: 2017/01/12/
!!!ENC: Nathaniel Condit-Schultz
!!!EST: Awating manual error checking and editing.
